X:1
T:To Be There
T:To Be There
T:Ira David Sankey
T:William Orcutt Cushing, 1877
T:Public Domain Courtesy of the Cyber Hymnal™
T:Public Domain Courtesy of the Cyber Hymnal™
C:Ira David Sankey
Z:Public Domain
Z:Courtesy of the Cyber Hymnal™
%%score ( 1 2 ) ( 3 4 )
L:1/8
Q:1/4=103
M:4/4
K:Eb
V:1 treble 
V:2 treble 
V:3 bass 
V:4 bass 
V:1
 E[EG] | [GB]2 [GB]>[GB] [GB]2 [Ac]>[GB] | [Ge]6 [Ge][Bd] | [Ac]2 [Ac]>[Ac] ([Ac][ce]) [Bd]>[Ac] | %4
w: 1.~I have|heard of a land far a-|way, And its|glo- ries no tongue * can de-|
w: 2.~There are|fore- tastes of Heav- en be-|low, There are|mo- ments like joys * of the|
w: 3.~In that|noon- tide of glo- ry so|fair, In the|gleam of the riv- * er of|
w: 4.~There the|ran- somed with Je- sus a-|bide In the|shade of the shel- * ter- ing|
 [GB]6 [GB][GB] | [Ge]2 [Ge]>[Ge] d2 [Ec]>[Ec] | [GB]6 [Ac][Ac] | [GB]2 [EG]E [DF]2 [DG]>[DF] | %8
w: clare; But its|beau- ty hangs o- ver the|way, And with|Je- sus I long to be|
w: blest; But the|splen- dors no mor- tal can|know, Of the|land where the wea- ry shall|
w: life, There are|joys that the faith- ful shall|share; O how|sweet- ly they rest from the|
w: fold; Ev- er-|more by Im- man- u- el’s|side, They shall|dwell in the glo- ry un-|
 E6 ||"^Refrain" [GB]>[GB] | [GB]6 [GB]>[GB] | [Ac]6 [Ae][Ac] | [GB]2 [GB]>[GB] [FB]2 [Ac][Ad] | %13
w: there.|||||
w: rest.|To be|there, to be|there, And with|Je- sus, I long to be|
w: strife!|||||
w: told.|||||
 [Ge]6 [GB]>[GB] | [GB]6 [GB]>[GB] | (!fermata!c4 !fermata!e2) [Bd][Ac] | %16
w: |||
w: there; To be|there, to be|there, * And with|
w: |||
w: |||
 [GB]2 [EG]E [DF]2 [DG]>[DF] | E6 |] %18
w: ||
w: Je- sus, I long to be|there.|
w: ||
w: ||
V:2
 E x | x8 | x8 | x8 | x8 | x4 (GF) x2 | x8 | x3 E x4 | E6 || x2 | x8 | x8 | x8 | x8 | x8 | A6 x2 | %16
 x3 E x4 | E6 |] %18
V:3
 [E,G,][E,B,] | [E,E]2 [E,E]>[E,E] [E,E]2 [E,E]>[E,E] | [E,B,]6 [E,B,][G,E] | %3
w: ~ ~|~ ~ ~ ~ ~ ~|~ ~ ~|
 [A,E]2 [A,E]>[A,E] [A,E]2 [A,E]>[A,E] | [E,E]6 [E,B,][E,B,] | %5
w: ~ ~ ~ ~ ~ ~|~ ~ ~|
 [C,C]2 [C,C]>[C,C] [G,=B,]2 [A,C]>[A,C] | [E,E]6 [A,,E][A,,E] | %7
w: ~ ~ ~ ~ ~ ~|~ ~ ~|
 [B,,E]2 [B,,B,][B,,G,] [B,,A,]2 [B,,B,]>[B,,A,] | [E,G,]6 || z2 | z2 [E,E]>[E,E] [E,E]2 z2 | %11
w: ~ ~ ~ ~ ~ ~|~||To be there,|
 z2 [A,E][A,E] [A,E]2 [A,C][A,E] | [B,E]2 [B,E]>[B,E] [B,D]2 B,B, | %13
w: to be there ~ ~|~ ~ ~ ~ ~ ~|
 [E,B,]2 [E,B,][E,B,] [E,B,]2 z2 | z2 [E,E]>[E,E] [E,E]2 z2 | %15
w: ~ to be there;|To be there,|
 z2 [A,E]>[A,E] !fermata![F,A,]2 [A,,C][A,,C] | [B,,E]2 [B,,B,][B,,G,] [B,,A,]2 [B,,B,]>[B,,A,] | %17
w: to be there, * *||
 [E,G,]6 |] %18
w: |
V:4
 x2 | x8 | x8 | x8 | x8 | x8 | x8 | x8 | x6 || x2 | x8 | x8 | x6 B,B, | x8 | x8 | x8 | x8 | x6 |] %18

